X:1
T:Serres chaudes
T:Oraison
T:5. Oraison
T:Ernest Chausson
T:Maurice Maeterlinck
T:Serres chaudes
T:Creative Commons copyright waiver (CC0 1.0 Universal) 
T:Creative Commons copyright waiver (CC0 1.0 Universal) 
C:Ernest Chausson
Z:Maurice Maeterlinck
Z:Creative Commons copyright waiver (CC0 1.0 Universal)
L:1/8
M:2/2
K:Db
V:1 treble nm="Voice" snm="Vo."
V:1
 z2 BB B3 B | B4 A2 G2 | F4 F2 z2 | z2 B2 B4 | B2 BB _c2 A2 | G6 F2 | z2 e2 e3 e | e3 e d2 _c2 | %8
w: Vous sa- vez, Sei-|gneur, ma mi-|sè- re!|Vo- yez|ce que je vous ap-|por- te|Des fleurs mau-|vai- ses de la|
 B4 B2 z2 | z _cBB g4 | f2 ff =g4- | g6 =c2- | =c2 z2 z4 | z2 d2 d2 =c2 | g4 d2 _cG | G4 G2 z2 | %16
w: ter- re|Et du sol- eil|sur u- ne mor-|* te||Voy- ez aus-|si ma las- si-|tu- de,|
 z2 z d d2 =d2 | =d3 =G G3 G | A4 A2 z2 | z4 =c2 dd | f4 =c2 =cd | d4- dd=dd | =A3 A A2 B2 | %23
w: La lune é-|teinte et l'au- be|noi- re;|Et fé- con-|dez ma so- li-|tude * En l'ar- ro-|sant de vo- tre|
 B4 B2 z2 | z8 | z4 B3 B | B6 B2 | _c4 A3 A | G4- G z z2 | e4 e4 | _f6 f2 | =f6 =f2 | f4 e2 d2 | %33
w: gloi- re.||Ou- vrez-|moi, Sei-|gneur, vo- tre|voie, *|E- clai-|rez mon|â- me|las- * *|
 =c4 z4 | z2 B2 B2 B2 | B3 B A2 G2 | F8 | E4- E E2 E | _c6 c2 | z2 F4 G2 | G4 G2 z2 | z8 | z8 | %43
w: se|Car la tris-|tes- se de ma|joie|Sem- * ble de|l'her- be|sous la|gla- ce.|||
 z8 |] %44
w: |

